X: 442
T: Renzai wai qian xinzai jia
%%abc-version 2.0
%%abcx-abcm2ps-target-version 5.9.1 (29 Sep 2008)
%%abc-creator hum2abc beta
%%abcx-conversion-date 2013/10/02 07:52:30
%%abc-edited-by Helmut Schaffrath
%%humdrum-veritas 3693257958
%%humdrum-veritas-data 1205509266
%%continueall 1
%%barnumbers 0
L: 1/8
M: 2/4
K: C
e> d c A/ A/ [I:setbarnb 1]| 
cd2e | 
d> c A G | 
A/ G/ ED2 | 
e> d c A/ A/ | 
cd2e | 
d> c A G | 
A/ G/ EG2 |]  



